X: 68
T:An dro
M:4/4
L:1/8
S:Jean-Michel Veillon
R:An dro
Z:Steve Mansfield
K:G
BB/c/ BB/G/ | AA/G/ F/G/F/E | BB/c/ BB/G/ |1 AG/A/ F2E2 :|2 AG/A/ F3G |
|: EF/G/AA/B/ | AG/A/ B/c/B/G/ | EF/G/ AB/A/ | GE/A/ A/G/F/A/ |
EF/G/ AA/B/ | AG/A/ B/c/B/G/ | EF/G/ AB/A/ | G/E/F/D/ EE :|
<end>
<start>
